X:278
T: Paddy O'Carroll
N: O'Farrell's Pocket Companion v.3 (Sky ed. p.127)
N: "Scotch" (?)
M: 6/8
L: 1/8
R: jig
Q: 320
K: G
d| BGG BGG| BcB BAG| dBB gdB| ABA A2d|
BGG BGG| BcB BAG| dBB gdB| ABA G2 :|
P:2
g| bgg agf| ege dcB| GBd gfg| efg a3|
bgg agf| ege dcB| def gdB| GAG G2 :|
P:3
d| BGG dGG| BGG BAG| ece dBG| FAA A2c|
BGG dGG| BcB BAG| def gdB| GAG G2 :|
P:4
d| gbg faf| ege dcB| ceg dBG| FAAA2g|
bgg agf| ege dcB| def gdB| GAG G2 :|
